symbols/web/brightness_3/materialsymbolsrounded/brightness_3_wght500gradN25_48px.svg

<svg xmlns="http://www.w3.org/2000/svg" height="48" width="48"><path d="M24.35 39.2q4.7-1.75 7.575-5.975T34.8 23.95q0-5.1-2.9-9.3-2.9-4.2-7.65-6 2.4 3.2 3.6 7.025 1.2 3.825 1.2 8.275t-1.175 8.3Q26.7 36.1 24.35 39.2ZM38.1 23.95q0 4-1.475 7.575T32.6 37.8q-2.55 2.7-5.975 4.35-3.425 1.65-7.375 1.8-.75.1-1.25-.375t-.5-1.225q0-.45.175-.775t.525-.525q3.85-2.95 5.725-7.65 1.875-4.7 1.875-9.45 0-4.8-1.875-9.475T18.2 6.85q-.35-.2-.525-.525Q17.5 6 17.5 5.55q0-.75.5-1.225.5-.475 1.25-.425 3.95.2 7.375 1.85Q30.05 7.4 32.6 10.1q2.55 2.7 4.025 6.275Q38.1 19.95 38.1 23.95Zm-9.05 0Z"/></svg>

<svg xmlns="http://www.w3.org/2000/svg" height="48" width="48"><path d="M24.35 39.2Q29.05 37.45 31.925 33.225Q34.8 29 34.8 23.95Q34.8 18.85 31.9 14.65Q29 10.45 24.25 8.65Q26.65 11.85 27.85 15.675Q29.05 19.5 29.05 23.95Q29.05 28.4 27.875 32.25Q26.7 36.1 24.35 39.2ZM38.1 23.95Q38.1 27.95 36.625 31.525Q35.15 35.1 32.6 37.8Q30.05 40.5 26.625 42.15Q23.2 43.8 19.25 43.95Q18.5 44.05 18 43.575Q17.5 43.1 17.5 42.35Q17.5 41.9 17.675 41.575Q17.85 41.25 18.2 41.05Q22.05 38.1 23.925 33.4Q25.8 28.7 25.8 23.95Q25.8 19.15 23.925 14.475Q22.05 9.8 18.2 6.85Q17.85 6.65 17.675 6.325Q17.5 6 17.5 5.55Q17.5 4.8 18 4.325Q18.5 3.85 19.25 3.9Q23.2 4.1 26.625 5.75Q30.05 7.4 32.6 10.1Q35.15 12.8 36.625 16.375Q38.1 19.95 38.1 23.95ZM29.05 23.95Q29.05 23.95 29.05 23.95Q29.05 23.95 29.05 23.95Q29.05 23.95 29.05 23.95Q29.05 23.95 29.05 23.95Q29.05 23.95 29.05 23.95Q29.05 23.95 29.05 23.95Q29.05 23.95 29.05 23.95Q29.05 23.95 29.05 23.95Z"/></svg>
